core/img/places/home.svg

<svg xmlns="http://www.w3.org/2000/svg" height="16" width="16" version="1.1"><path d="m8 1l-8 8h3v6h10v-6h3l-3-3v-4h-3v1l-2-2z"/></svg>

<svg xmlns="http://www.w3.org/2000/svg" width="16" height="16"><path d="M8 1 L0 9 L3 9 L3 15 L13 15 L13 9 L16 9 L13 6 L13 2 L10 2 L10 3 L8 1z"/></svg>
